logos/cignature.svg

<?xml version="1.0" encoding="UTF-8"?>
<svg width="512px" height="512px" viewBox="0 0 512 512" version="1.1" xmlns="http://www.w3.org/2000/svg" xmlns:xlink="http://www.w3.org/1999/xlink">
    <!-- Generator: Sketch 61.2 (89653) - https://sketch.com -->
    <title>cignature</title>
    <desc>Created with Sketch.</desc>
    <g id="cignature" stroke="none" stroke-width="1" fill="none" fill-rule="evenodd">
        <path d="M301.935728,446.869571 C310.309015,463.451215 320.501362,477.178839 332.513163,488.051516 L333.720751,489.129569 L302.277737,489.129569 L301.609209,488.340502 C289.764527,474.322173 281.283135,462.244679 276.165034,452.108021 C279.674439,451.695996 283.377904,451.100513 287.274538,450.323116 C290.938028,449.592233 295.825091,448.441052 301.935728,446.869571 Z M385.960361,179.799386 C400.485279,185.301648 416.226349,186.9312 433.18357,184.688042 C435.000873,193.055575 433.89373,199.855337 429.86214,205.08733 C423.814757,212.935318 417.909153,213.351569 424.116275,226.726718 C428.254357,235.643484 437.115598,239.371349 450.7,237.910314 C441.682166,248.050466 433.743511,253.120543 426.884037,253.120543 C420.024563,253.120543 410.263956,249.269281 397.602219,241.566758 C390.701502,248.119454 384.851605,251.970715 380.052526,253.120543 C375.253448,254.27037 369.639214,253.165838 363.209824,249.806947 C376.458231,229.579064 372.925184,210.850396 352.610684,193.620944 C322.138933,167.776766 268.472429,142.404087 203.840043,168.492328 C160.751785,185.884488 132.553799,221.573225 119.246083,275.55854 C113.669408,270.293781 108.805414,268.696438 104.654099,270.766511 C100.502785,272.836584 99.0711233,277.169018 100.359115,283.763813 C95.4226547,281.253994 91.028109,280.683409 87.1754774,282.052057 C83.3228459,283.420706 80.0786075,286.258843 77.4427622,290.566471 L77.7083747,290.992335 C80.295566,295.061674 83.4512669,297.757857 87.1754774,299.080884 C91.028109,300.449532 95.4226547,299.878947 100.359115,297.369128 C99.0711233,303.963924 100.502785,308.296358 104.654099,310.366431 C108.805414,312.436504 113.669408,310.839161 119.246083,305.574402 C132.553799,359.559716 160.751785,395.248453 203.840043,412.640614 C209.83329,415.05973 215.732248,417.036359 221.527164,418.611155 C233.053829,383.802344 238.816593,339.951203 238.816593,287.057578 C238.816593,227.040573 235.662529,188.754068 229.375928,164.041603 C238.171547,162.119655 247.022601,161.100919 255.927254,160.99111 C264.821451,160.881429 273.693159,161.818546 282.542379,163.802461 C276.212844,188.501438 273.037915,226.842379 273.037915,287.057578 C273.037915,339.32933 278.665969,382.769974 289.922077,417.379509 C283.265539,418.180215 277.398554,418.540683 272.320953,418.458581 C268.752755,418.400885 265.601852,418.260054 262.868246,418.036086 C260.772098,411.795868 258.550882,404.888784 256.205865,397.314783 L255.927254,396.413666 C252.815979,406.490439 249.920821,415.402978 247.241781,423.151283 C292.311957,426.831974 329.267319,407.310337 352.610684,387.511997 C372.925184,370.282545 376.458231,351.553878 363.209824,331.325994 C369.639214,327.967103 375.253448,326.862571 380.052526,328.012399 C384.851605,329.162226 390.701502,333.013487 397.602219,339.566183 C410.263956,331.86366 420.024563,328.012399 426.884037,328.012399 C433.743511,328.012399 441.682166,333.082475 450.7,343.222627 C437.115598,341.761592 428.254357,345.489457 424.116275,354.406223 C417.909153,367.781373 423.814757,368.197623 429.86214,376.045612 C433.89373,381.277604 435.000873,388.077366 433.18357,396.444899 C416.226349,394.201741 400.485279,395.831293 385.960361,401.333556 C364.851011,409.330102 317.451334,454.283897 238.205496,446.759384 C237.388309,448.604824 236.60374,450.280798 235.850641,451.787238 C230.750293,461.989578 222.215179,474.173999 210.245298,488.340502 L209.576771,489.129569 L178.133756,489.129569 C191.732735,477.156712 203.046073,461.597403 212.07377,442.451643 C164.473352,431.089176 125.108196,401.301037 93.9768027,353.085816 C86.0846085,356.913849 79.1489126,355.328864 73.169715,348.330864 C67.1905174,341.332863 66.3876376,333.727373 70.7610756,325.514393 C64.766248,319.742016 59.6836967,314.692695 55.5134218,310.366431 C51.4424391,306.143172 46.1000344,299.753176 39.4862076,291.19644 L39,290.566471 C45.8386729,281.692762 51.3431468,275.092775 55.5134218,270.766511 C59.6836967,266.440246 64.766248,261.390925 70.7610756,255.618548 C66.3876376,247.405568 67.1905174,239.800078 73.169715,232.802078 C79.1489126,225.804077 86.0846085,224.219093 93.9768027,228.047125 C129.033646,173.752304 174.531602,142.824596 230.470672,135.264 C314.379277,123.923106 364.172984,171.545992 385.960361,179.799386 Z M383.853389,56.6260158 L400.819187,66.3888735 L400.819187,92.4889734 L400.353475,92.3494303 C385.06221,87.8220792 377.416578,90.9742491 377.416578,101.80594 C377.416578,112.747042 385.217447,114.675052 400.819187,107.58997 C409.304081,125.793625 415.673561,138.860916 419.927627,146.791844 C424.181693,154.722772 420.831663,164.665667 409.877537,176.620529 C382.706723,132.961033 356.331999,113.120221 330.753365,117.098091 C316.276922,119.349401 304.508222,122.936109 295.464831,134.514209 C279.184209,131.742773 266.064747,130.355608 256.107365,130.355608 C246.05292,130.355608 232.774447,131.693091 216.271948,134.368057 C207.244427,122.905106 195.514969,119.339663 181.101143,117.098091 C155.522508,113.120221 129.147784,132.961033 101.976971,176.620529 C91.0228447,164.665667 87.6728146,154.722772 91.9268806,146.791844 C96.1809465,138.860916 102.550426,125.793625 111.03532,107.58997 C126.63706,114.675052 134.43793,112.747042 134.43793,101.80594 C134.43793,90.9742491 126.792297,87.8220792 111.501032,92.3494303 L111.03532,92.4889734 L111.03532,66.3888735 L128.001118,56.6260158 C146.640517,68.979312 162.450333,76.8658756 175.430569,80.2857067 C188.263301,83.6666761 209.060334,86.3544195 237.821666,88.3489371 L238.816593,88.4174388 L241.571801,96.7640286 C237.655062,99.9971187 237.655062,103.605766 241.571801,107.58997 C245.310507,111.393075 249.840472,115.525159 255.161696,119.986222 L255.927254,120.625755 L256.692811,119.986222 C262.014036,115.525159 266.544001,111.393075 270.282706,107.58997 C274.126913,103.679548 274.198102,100.130901 270.496273,96.9440311 L270.282706,96.7640286 L273.037915,88.4174388 L274.032842,88.3489371 C302.794174,86.3544195 323.591206,83.6666761 336.423939,80.2857067 C349.201358,76.9193105 364.720625,69.2246766 382.98174,57.201805 L383.853389,56.6260158 Z M255.927254,24 L256.215476,24.6096396 C260.601073,33.9015115 263.431469,40.620371 264.706664,44.7662179 C266.009581,49.0021919 266.421349,53.539805 265.941969,58.3790573 C272.472365,55.6106787 278.060162,55.6106787 282.705361,58.3790573 C287.35056,61.1474359 290.577244,65.2906625 292.385413,70.8087372 C280.538152,71.0845655 272.662348,73.60838 268.758001,78.380181 C264.959176,83.0230143 260.80765,89.8267988 256.303422,98.7915345 L255.927254,99.543598 C251.27777,90.2064542 247.000854,83.1519819 243.096507,78.380181 C239.192159,73.60838 231.316355,71.0845655 219.469094,70.8087372 C221.277264,65.2906625 224.503948,61.1474359 229.149147,58.3790573 C233.794345,55.6106787 239.382143,55.6106787 245.912539,58.3790573 C245.433158,53.539805 245.844927,49.0021919 247.147844,44.7662179 C248.45076,40.5302439 251.377231,33.6081712 255.927254,24 Z" id="Combined-Shape" fill="#000000"></path>
    </g>
</svg>

<svg width="512" height="512" xmlns="http://www.w3.org/2000/svg">
  <path d="M301.94 446.87c8.37 16.58 18.56 30.3 30.57 41.18l1.21 1.08h-31.44l-.67-.79c-11.85-14.02-20.33-26.1-25.44-36.23 3.5-.41 7.2-1 11.1-1.79 3.67-.73 8.56-1.88 14.67-3.45zm84.02-267.07c14.53 5.5 30.27 7.13 47.22 4.89 1.82 8.37.71 15.17-3.32 20.4-6.05 7.85-11.95 8.26-5.74 21.64 4.13 8.91 13 12.64 26.58 11.18-9.02 10.14-16.96 15.21-23.82 15.21-6.86 0-16.62-3.85-29.28-11.55-6.9 6.55-12.75 10.4-17.55 11.55-4.8 1.15-10.41.05-16.84-3.31 13.25-20.23 9.72-38.96-10.6-56.19-30.47-25.84-84.14-51.22-148.77-25.13-43.09 17.4-71.29 53.08-84.6 107.07-5.57-5.27-10.43-6.86-14.59-4.8-4.15 2.08-5.58 6.4-4.3 13-4.93-2.5-9.32-3.08-13.17-1.7-3.86 1.36-7.1 4.2-9.74 8.5l.27.43c2.59 4.07 5.74 6.77 9.47 8.1 3.85 1.36 8.24.79 13.18-1.72-1.29 6.6.14 10.93 4.3 13 4.15 2.07 9 .47 14.59-4.8 13.3 53.99 41.5 89.68 84.59 107.07 6 2.42 11.9 4.4 17.69 5.97 11.52-34.8 17.29-78.66 17.29-131.55 0-60.02-3.16-98.3-9.44-123.02 8.8-1.92 17.64-2.94 26.55-3.05 8.9-.1 17.76.83 26.61 2.81-6.33 24.7-9.5 63.04-9.5 123.26 0 52.27 5.63 95.71 16.88 130.32-6.65.8-12.52 1.16-17.6 1.08-3.57-.06-6.72-.2-9.45-.42a919.75 919.75 0 01-6.66-20.73l-.28-.9c-3.11 10.08-6 19-8.69 26.74 45.07 3.68 82.03-15.84 105.37-35.64 20.32-17.23 23.85-35.96 10.6-56.18 6.43-3.36 12.04-4.47 16.84-3.32 4.8 1.15 10.65 5 17.55 11.56 12.66-7.7 22.42-11.56 29.28-11.56 6.86 0 14.8 5.07 23.82 15.21-13.58-1.46-22.45 2.27-26.58 11.19-6.21 13.37-.3 13.79 5.74 21.64 4.03 5.23 5.14 12.03 3.32 20.4-16.95-2.25-32.7-.62-47.22 4.88-21.1 8-68.5 52.95-147.75 45.43a119.6 119.6 0 01-2.36 5.03c-5.1 10.2-13.63 22.38-25.6 36.55l-.67.79h-31.45c13.6-11.97 24.92-27.53 33.94-46.68-47.6-11.36-86.96-41.15-118.1-89.36-7.89 3.82-14.82 2.24-20.8-4.76s-6.78-14.6-2.4-22.82c-6-5.77-11.09-10.82-15.26-15.14-4.07-4.23-9.41-10.62-16.02-19.17l-.49-.63c6.84-8.88 12.34-15.48 16.51-19.8a588.4 588.4 0 0115.25-15.15c-4.37-8.21-3.57-15.82 2.41-22.82s12.91-8.58 20.8-4.75c35.06-54.3 80.56-85.23 136.5-92.79 83.9-11.34 133.7 36.29 155.49 44.54zm-2.1-123.17l16.96 9.76v26.1l-.47-.14c-15.29-4.53-22.93-1.38-22.93 9.46 0 10.94 7.8 12.87 23.4 5.78 8.48 18.2 14.85 31.27 19.1 39.2 4.26 7.93.91 17.88-10.04 29.83-27.17-43.66-53.55-63.5-79.13-59.52-14.47 2.25-26.24 5.84-35.29 17.41-16.28-2.77-29.4-4.15-39.35-4.15-10.06 0-23.34 1.33-39.84 4-9.03-11.45-20.76-15.02-35.17-17.26-25.58-3.98-51.95 15.86-79.12 59.52-10.96-11.95-14.3-21.9-10.05-29.83s10.62-21 19.1-39.2c15.6 7.09 23.4 5.16 23.4-5.78 0-10.84-7.64-13.99-22.93-9.46l-.46.14v-26.1L128 56.63c18.64 12.35 34.45 20.24 47.43 23.66 12.83 3.38 33.63 6.06 62.4 8.06l.99.07 2.75 8.34c-3.91 3.24-3.91 6.85 0 10.83a193.6 193.6 0 0013.6 12.4l.76.64.76-.64a193.6 193.6 0 0013.6-12.4c3.84-3.91 3.9-7.46.2-10.65l-.2-.18 2.75-8.34 1-.07c28.75-2 49.55-4.68 62.38-8.06 12.78-3.37 28.3-11.07 46.56-23.09l.87-.57zM255.92 24l.29.61c4.38 9.3 7.21 16.01 8.49 20.16a34.36 34.36 0 011.23 13.6c6.53-2.76 12.12-2.76 16.77 0 4.64 2.78 7.87 6.92 9.68 12.44-11.85.27-19.73 2.8-23.63 7.57-3.8 4.64-7.95 11.45-12.46 20.41l-.37.75c-4.65-9.33-8.93-16.39-12.83-21.16-3.9-4.77-11.78-7.3-23.63-7.57 1.8-5.52 5.03-9.66 9.68-12.43 4.64-2.77 10.23-2.77 16.76 0a34.36 34.36 0 011.24-13.61c1.3-4.24 4.23-11.16 8.78-20.77z" fill="#000" fill-rule="evenodd"/>
</svg>
